**kern	**kern	**dynam
*part1	*part1	*part1
*staff2	*staff1	*
*I"Piano	*	*
*clefF4	*clefG2	*
*k[f#c#g#d#]	*k[f#c#g#d#]	*
=1	=1	=1
*^	*	*
16c#LL 16f#	4.En	16aLL 16cc#	.
16c# 16f#	.	16a 16cc#	.
!	!	!	!LO:DY:a
16c# 16f#	.	16a 16cc#	<
16c# 16f#	.	16a 16cc#	.
16c# 16f#	.	16a 16cc#	.
16c#JJ 16f#	.	16aJJ 16cc#	.
=	=	=	=
16BLL	4.D#	16f#LL 16a 16b	.
16B	.	16f# 16a 16b	.
16B	.	16f# 16a 16b	.
16B	.	16f# 16a 16b	.
16B	.	16f# 16a 16b	.
16BJJ	.	16f#JJ 16a 16b	.
=	=	=	=
*	*^	*	*
[4.B	[4.E	4ryy	16g#LL 16b	[ mf
.	.	.	16e 16g# 16b	.
.	.	.	16e 16g# 16b	.
.	.	.	16e 16g# 16b	.
.	.	[8BB\	16e 16g# 16b	.
.	.	.	16eJJ 16g# 16b	.
*	*v	*v	*	*
=	=	=	=
4.BB_ 4.E] 4.B]	4EE	16eLL 16g# 16b	.
.	.	16e 16g# 16b	.
.	.	16e 16g# 16b	.
.	.	16e 16g# 16b	.
.	[8BBB	16e 16g# 16b	.
.	.	16eJJ 16g# 16b	.
*v	*v	*	*
=	=	=
8BBBL] 8BB]	16BLL 16e 16g#	.
.	16B 16e 16g#	<
(8BBB 8BB	16B 16e 16g#	.
.	16B 16e 16g#	.
8AAAJ 8AA	16B 16d# 16f#	.
.	16BJJ 16d# 16f#	.
=	=	=
4.GGG# 4.GG#	16BLL 16dn 16e	.
.	16B 16d 16e	.
.	16B 16d 16e	.
.	16B 16d 16e	.
.	16B 16d 16e	.
.	16BJJ 16d 16e	.
=	=	=
4.AAA 4.AA	16ALL 16dn 16e	] > f
.	16A 16d 16e	.
.	16A 16d 16e	.
.	16A 16d 16e	.
.	16A 16c# 16e	.
.	16AJJ 16c# 16e	.
=	=	=
*-	*-	*-
!!!system-decoration: {(s1,s2)}
